X:1
T:He’s come, let every knee be bent
T:Joseph Stephenson
T:p32, Church Harmony Sacred to Devotion, 4th ed. London: [c1763-1771]
T:This edition by Edmund Gooch released into the public domain, December 2010. As such, it may be freely copied and performed.
T:He’s come, let every knee be bent
T:An Hymn for Whitsunday. (A 4 Voce).
T:Copyright © 
T:Copyright © 
T:Copyright © 
C:Joseph Stephenson
Z:p32, Church Harmony
Z:Sacred to Devotion, 4th ed.
Z:London: [c1763-1771]
Z:Copyright ©
%%score [ 1 2 3 4 ]
L:1/8
M:2/2
K:Bb
V:1 treble nm="SOPRANO" snm="S."
V:2 treble nm="ALTO" snm="A."
V:3 treble-8 transpose=-12 nm="TENOR" snm="T."
V:4 bass nm="BASS" snm="B."
V:1
 d4 B2 B2 | c6 d2 | B6 c2 | d6 z2 | z8 | z8 | z4 z2 B2 | f2 f2 d2 d2 | B6 c2 | d6 d2 | %10
w: Hail bless- ed|spi- rit,|not one|soul,|||But|does thy pow’r- ful,|pow’r- ful|in- fluence|
w: He’s come, let|ev- ’ry|knee be|bent,|||Let|all our hearts new|joy, new|joy re-|
w: No an- xious|thoughts mo-|lest our|peace,|||This|day let all our|grief, our|grief re-|
 f2 f2 d2 d2 | c2 c2 c2 =B2 | c8 |: A4 B2 F2 | (B3 c d2) B2 | d4 c4 | A6 z2 | z8 | z8 | z8 | %20
w: feel, but does thy|pow’r- ful in- fluence|feel;|Thou dost our|dar- * * ling|sins con-|trol,||||
w: sume, let all our|hearts new joy re-|sume.|Let na- tions|sing _ _ with|one con-|sent:||||
w: tire, this day let|all our grief re-|tire;|Let ev- ’ry|tear _ _ for|e- ver|cease,||||
 f4 d2 d2 | B2 B2 B2 B2 | d2 d2 d2 c2 | B4 A4 | B8 :| %25
w: And al- so|fix our wav- ’ring,|al- so fix our|wav- ’ring|zeal.|
w: The pro- mised|Com- fort- er, the|pro- mised Com- for-|ter is|come.|
w: And ev- ’ry|doubt- ful thought, and|ev- ’ry doubt- ful|thought ex-|pire.|
V:2
 F4 B2 G2 | A6 F2 | G4 F4 | F6 z2 | z8 | z4 z2 F2 | B2 B2 G2 G2 | (F3 G FG) A2 | B6 A2 | %9
w: Hail bless- ed|spi- rit,|not one|soul,||But|does thy pow’r- ful|in- * * * fluence|feel, but|
w: He’s come, let|ev- ’ry|knee be|bent,||Let|all our hearts new|joy _ _ _ re-|sume, let|
w: No an- xious|thoughts mo-|lest our|peace,||This|day let all our|grief _ _ _ re-|tire, this|
 F2 F2 D2 F2 | B2 B2 B2 F2 | G4 G4 | [=EG]8 |: F4 F2 F2 | (D3 E F2) F2 | B4 G4 | F6 z2 | z8 | z8 | %19
w: does thy pow’r- ful,|does thy pow’r- ful|in- fluence|feel;|Thou dost our|dar- * * ling|sins con-|trol,|||
w: all our hearts, let|all our hearts new|joy re-|sume.|Let na- tions|sing _ _ with|one con-|sent:|||
w: day let all, this|day let all our|grief re-|tire;|Let ev- ’ry|tear _ _ for|e- ver|cease,|||
 B4 G2 G2 | F6 A2 | B2 B2 B2 G2 | F2 A2 B2 G2 | F6 F2 | F8 :| %25
w: And al- so|fix our|wav- ’ring zeal, and|al- so fix our|wav- ’ring|zeal.|
w: The pro- mised|Com- fort-|er is come, the|pro- mised Com- for-|ter is|come.|
w: And ev- ’ry|doubt- ful|thought ex- pire, and|ev- ’ry doubt- ful|thought ex-|pire.|
V:3
 B4 d2 =e2 | f6 d2 | (e2 d2 c2) A2 | B6 z2 | z4 z2 B2 | f2 f2 d2 d2 | (B3 c Bc) d2 | c4 d4 | %8
w: Hail bless- ed|spi- rit,|not _ _ one|soul,|But|does thy pow’r- ful|in- * * * fluence,|in- fluence|
w: He’s come, let|ev- ’ry|knee _ _ be|bent,|Let|all our hearts new|joy, _ _ _ new|joy re-|
w: No an- xious|thoughts mo-|lest _ _ our|peace,|This|day let all our|grief, _ _ _ our|grief re-|
 f6 f2 | d2 d2 B2 B2 | B2 d2 f2 f2 | e4 d4 | c8 |: c4 d2 d2 | (f3 e d2) d2 | g4 =e4 | f6 z2 | z8 | %18
w: feel, but|does thy pow’r- ful,|does thy pow’r- ful|in- fluence|feel;|Thou dost our|dar- * * ling|sins con-|trol,||
w: sume, let|all our hearts, let|all our hearts new|joy re-|sume.|Let na- tions|sing _ _ with|one con-|sent:||
w: tire, this|day let all, this|day let all our|grief re-|tire;|Let ev- ’ry|tear _ _ for|e- ver|cease,||
 f4 d2 d2 | B6 G2 | _A4 F4 | B6 B2 | f2 f2 d2 e2 | c6 (cd) | B8 :| %25
w: And al- so|fix our|wav- ’ring|zeal, and|al- so fix our|wav- ’ring _|zeal.|
w: The pro- mised|Com- fort-|er is|come, the|pro- mised Com- for-|ter is _|come.|
w: And ev- ’ry|doubt- ful|thought ex-|pire, and|ev- ’ry doubt- ful|thought ex- *|pire.|
V:4
 B,4 G,2 G,2 | F,6 B,2 | E,4 F,4 | B,,6 F,2 | B,2 B,2 G,2 G,2 | F,4 B,4 | (G,3 A, G,A,) B,2 | %7
w: Hail bless- ed|spi- rit,|not one|soul, But|does thy pow’r- ful|in- fluence,|in- * * * fluence|
w: He’s come, let|ev- ’ry|knee be|bent, Let|all our hearts new|joy, new|joy _ _ _ re-|
w: No an- xious|thoughts mo-|lest our|peace, This|day let all our|grief, our|grief _ _ _ re-|
 F,6 F,2 | D,2 D,2 B,,2 F,2 | B,2 B,2 B,2 B,2 | D2 D2 B,2 D,2 | E,4 G,4 | C,8 |: F,4 B,2 B,2 | %14
w: feel, but|does thy pow’r- ful|in- fluence feel, but|does thy pow’r- ful|in- fluence|feel;|Thou dost our|
w: sume, let|all our hearts new|joy re- sume, let|all our hearts new|joy re-|sume.|Let na- tions|
w: tire, this|day let all our|grief re- tire, this|day let all our|grief re-|tire;|Let ev- ’ry|
 (D3 C B,2) B,2 | G,4 [C,C]4 | F,6 z2 | B,4 G,2 G,2 | F,6 D,2 | %19
w: dar- * * ling|sins con-|trol,|And al- so|fix our|
w: sing _ _ with|one con-|sent:|The pro- mised|Com- fort-|
w: tear _ _ for|e- ver|cease,|And ev- ’ry|doubt- ful|
"^Emendations: The original order of parts is as here: the alto part is printed in the alto clef in the source.The first verse only is underlaid in the source: other verses are printed afterwards, and have been underlaid editorially.The original time signature is a figure 2 alone." E,4 B,,4 | %20
w: wav- ’ring|
w: er is|
w: thought ex-|
 F,6 z2 | G,4 E,2 E,2 | (D,3 C, B,,2) C,2 | F,4 F,,4 | B,,8 :| %25
w: zeal,|and al- so|fix _ _ our|wav- ’ring|zeal.|
w: come,|the pro- mised|Com- * * for-|ter is|come.|
w: pire,|and ev- ’ry|doubt- * * ful|thought ex-|pire.|

